X:231
T:Paddy Canny's
T:Eileen O'Callaghan's
P:See also: The milliner's daughter
R:Reel
O:Ireland
D:Session tape, Doolin 1987
B:Irish Fiddle Book
B:Bulmer & Sharpley 1,15 (?)
S:Bernie Stocks ABC (Sharon Shannon,,,?)
Z:Transcription:Bernie Stocks, chords:Mike Long
M:C|
L:1/8
K:G
"G"G2BG DGBG|"G"G2Bd "D"cAFA|"G"G2BG DGBG |"C/D"defd "D"cAFA|\
"G"G2BG DGBG|"G"G2Bd "D"cAFA|
"G"GB~B2 dB~B2|"D"defd cAFA|]\
"G"dggf gefg|"D"adfd agfe|"G"dggf "C"gdfe|
"D"defd cAFA|\
"G"dggf gefa |"D"a2ab agfe|"G"dg~g2 bg~g2|"D"defd cAFA|]
